www/src/assets/plugins-ecosystem.svg

<svg viewBox="0 0 32 32" fill="none" xmlns="http://www.w3.org/2000/svg">
  <path d="M16 22.5a6.5 6.5 0 1 0 0-13 6.5 6.5 0 0 0 0 13z" fill="url(#paint0_linear)"/>
  <path d="M16 10c3.3 0 6 2.7 6 6s-2.7 6-6 6-6-2.7-6-6 2.7-6 6-6zm0-1c-3.9 0-7 3.1-7 7s3.1 7 7 7 7-3.1 7-7-3.1-7-7-7z" fill="#639"/>
  <path d="M16 19.5a3.5 3.5 0 1 0 0-7 3.5 3.5 0 0 0 0 7z" fill="#fff"/>
  <path d="M16 13c1.7 0 3 1.3 3 3s-1.3 3-3 3-3-1.3-3-3 1.3-3 3-3zm0-1c-2.2 0-4 1.8-4 4s1.8 4 4 4 4-1.8 4-4-1.8-4-4-4z" fill="#639"/>
  <path d="M16 6c5.5 0 10 4.5 10 10h-3.5v.5c0 .8-.6 1.5-1.5 1.5s-1.5-.7-1.5-1.5V16H16v-3.5h.5c.8 0 1.5-.6 1.5-1.5s-.7-1.5-1.5-1.5H16V6z" fill="url(#paint1_linear)"/>
  <path d="M16 23c-3.9 0-7-3.1-7-7s3.1-7 7-7V6C10.5 6 6 10.5 6 16s4.5 10 10 10v-3z" fill="#fff"/>
  <path d="M16 16h3.5v.5c0 .8.6 1.5 1.5 1.5s1.5-.7 1.5-1.5V16H26c0 5.5-4.5 10-10 10v-3.5h-.5c-.8 0-1.5-.6-1.5-1.5s.7-1.5 1.5-1.5h.5V16z" fill="url(#paint2_linear)"/>
  <path d="M16 6.5v3h.5c.8 0 1.5.6 1.5 1.5s-.7 1.5-1.5 1.5H16V16M16 16v3.5h-.5c-.8 0-1.5.6-1.5 1.5s.7 1.5 1.5 1.5h.5V26M25.5 16h-3v.5c0 .8-.6 1.5-1.5 1.5s-1.5-.7-1.5-1.5V16H16" stroke="#639" stroke-miterlimit="10"/>
  <path d="M16 7.4c4.7 0 8.6 3.9 8.6 8.6 0 4.7-3.9 8.6-8.6 8.6-4.7 0-8.6-3.9-8.6-8.6 0-4.7 3.9-8.6 8.6-8.6zM16 6C10.5 6 6 10.5 6 16s4.5 10 10 10 10-4.5 10-10S21.5 6 16 6z" fill="#639"/>
  <defs>
    <linearGradient id="paint0_linear" x1="16" y1="22.5" x2="16" y2="9.5" gradientUnits="userSpaceOnUse">
      <stop stop-color="#8C65B3"/>
      <stop offset=".5" stop-color="#FFB238"/>
      <stop offset="1" stop-color="#fff"/>
    </linearGradient>
    <linearGradient id="paint1_linear" x1="21" y1="18.006" x2="21" y2="6" gradientUnits="userSpaceOnUse">
      <stop stop-color="#fff" stop-opacity=".5"/>
      <stop offset=".072" stop-color="#FFF2DE" stop-opacity=".536"/>
      <stop offset=".182" stop-color="#FFE1B3" stop-opacity=".591"/>
      <stop offset=".298" stop-color="#FFD38D" stop-opacity=".649"/>
      <stop offset=".418" stop-color="#FFC76E" stop-opacity=".709"/>
      <stop offset=".543" stop-color="#FFBE56" stop-opacity=".772"/>
      <stop offset=".675" stop-color="#FFB745" stop-opacity=".838"/>
      <stop offset=".82" stop-color="#FFB33B" stop-opacity=".91"/>
      <stop offset="1" stop-color="#FFB238"/>
    </linearGradient>
    <linearGradient id="paint2_linear" x1="20" y1="26" x2="20" y2="16" gradientUnits="userSpaceOnUse">
      <stop stop-color="#E2D8EC"/>
      <stop offset=".364" stop-color="#E5DCED" stop-opacity=".818"/>
      <stop offset=".656" stop-color="#EDE6F1" stop-opacity=".672"/>
      <stop offset=".922" stop-color="#FAF7F8" stop-opacity=".539"/>
      <stop offset="1" stop-color="#FFFDFB" stop-opacity=".5"/>
    </linearGradient>
  </defs>
</svg>

<svg  viewBox="0 0 32 32" fill="none" xmlns="http://www.w3.org/2000/svg">
<path d="M16 22.5C19.5899 22.5 22.5 19.5899 22.5 16C22.5 12.4101 19.5899 9.5 16 9.5C12.4101 9.5 9.5 12.4101 9.5 16C9.5 19.5899 12.4101 22.5 16 22.5Z" fill="url(#paint0_linear)"/>
<path d="M16 10C19.3 10 22 12.7 22 16C22 19.3 19.3 22 16 22C12.7 22 10 19.3 10 16C10 12.7 12.7 10 16 10ZM16 9C12.1 9 9 12.1 9 16C9 19.9 12.1 23 16 23C19.9 23 23 19.9 23 16C23 12.1 19.9 9 16 9Z" fill="#663399"/>
<path d="M16 19.5C17.933 19.5 19.5 17.933 19.5 16C19.5 14.067 17.933 12.5 16 12.5C14.067 12.5 12.5 14.067 12.5 16C12.5 17.933 14.067 19.5 16 19.5Z" fill="white"/>
<path d="M16 13C17.7 13 19 14.3 19 16C19 17.7 17.7 19 16 19C14.3 19 13 17.7 13 16C13 14.3 14.3 13 16 13ZM16 12C13.8 12 12 13.8 12 16C12 18.2 13.8 20 16 20C18.2 20 20 18.2 20 16C20 13.8 18.2 12 16 12Z" fill="#663399"/>
<path d="M16 6C21.5 6 26 10.5 26 16H22.5V16.5C22.5 17.3 21.9 18 21 18C20.1 18 19.5 17.3 19.5 16.5V16H16V12.5H16.5C17.3 12.5 18 11.9 18 11C18 10.1 17.3 9.5 16.5 9.5H16V6Z" fill="url(#paint1_linear)"/>
<path d="M16 23C12.1 23 9 19.9 9 16C9 12.1 12.1 9 16 9V6C10.5 6 6 10.5 6 16C6 21.5 10.5 26 16 26V23Z" fill="white"/>
<path d="M16 16H19.5V16.5C19.5 17.3 20.1 18 21 18C21.9 18 22.5 17.3 22.5 16.5V16H26C26 21.5 21.5 26 16 26V22.5H15.5C14.7 22.5 14 21.9 14 21C14 20.1 14.7 19.5 15.5 19.5H16V16Z" fill="url(#paint2_linear)"/>
<path d="M16 6.5V9.5H16.5C17.3 9.5 18 10.1 18 11C18 11.9 17.3 12.5 16.5 12.5H16V16" stroke="#663399" stroke-miterlimit="10"/>
<path d="M16 16V19.5H15.5C14.7 19.5 14 20.1 14 21C14 21.9 14.7 22.5 15.5 22.5H16V26" stroke="#663399" stroke-miterlimit="10"/>
<path d="M25.5 16H22.5V16.5C22.5 17.3 21.9 18 21 18C20.1 18 19.5 17.3 19.5 16.5V16H16" stroke="#663399" stroke-miterlimit="10"/>
<path d="M16 7.4C20.7 7.4 24.6 11.3 24.6 16C24.6 20.7 20.7 24.6 16 24.6C11.3 24.6 7.4 20.7 7.4 16C7.4 11.3 11.3 7.4 16 7.4ZM16 6C10.5 6 6 10.5 6 16C6 21.5 10.5 26 16 26C21.5 26 26 21.5 26 16C26 10.5 21.5 6 16 6Z" fill="#663399"/>
<defs>
<linearGradient id="paint0_linear" x1="16" y1="22.5" x2="16" y2="9.5" gradientUnits="userSpaceOnUse">
<stop stop-color="#8C65B3"/>
<stop offset="0.5" stop-color="#FFB238"/>
<stop offset="1" stop-color="white"/>
</linearGradient>
<linearGradient id="paint1_linear" x1="21" y1="18.0059" x2="21" y2="6" gradientUnits="userSpaceOnUse">
<stop stop-color="white" stop-opacity="0.5"/>
<stop offset="0.0715153" stop-color="#FFF2DE" stop-opacity="0.5358"/>
<stop offset="0.1823" stop-color="#FFE1B3" stop-opacity="0.5912"/>
<stop offset="0.2983" stop-color="#FFD38D" stop-opacity="0.6491"/>
<stop offset="0.4182" stop-color="#FFC76E" stop-opacity="0.7091"/>
<stop offset="0.5432" stop-color="#FFBE56" stop-opacity="0.7716"/>
<stop offset="0.6755" stop-color="#FFB745" stop-opacity="0.8378"/>
<stop offset="0.8201" stop-color="#FFB33B" stop-opacity="0.91"/>
<stop offset="1" stop-color="#FFB238"/>
</linearGradient>
<linearGradient id="paint2_linear" x1="20" y1="26" x2="20" y2="16" gradientUnits="userSpaceOnUse">
<stop stop-color="#E2D8EC"/>
<stop offset="0.3637" stop-color="#E5DCED" stop-opacity="0.8181"/>
<stop offset="0.6557" stop-color="#EDE6F1" stop-opacity="0.6721"/>
<stop offset="0.9221" stop-color="#FAF7F8" stop-opacity="0.5389"/>
<stop offset="1" stop-color="#FFFDFB" stop-opacity="0.5"/>
</linearGradient>
</defs>
</svg>
